X:88
T:City Mell. JJo8.088, The
B:J.Johnson Choice Collection Vol 8 1758
Z:vmp.Simon Wilson 2013 www.village-music-project.org.uk
M:C|
L:1/8
Q:1/2=80
K:A
fg|aedc df2c|dcBA GB2E|ABcA dBec|fdecB2:|
|:ed|cA fe ^dB gf|e2fga2gf|egaf ecAc|dBAG|A2:|
